X:1
Q:1/4=110
L:1/8
M:2/4
K:C clef=G2
V:1
%%MIDI program 0
[Aa]15/16[Aa]15/32[Aa]15/32[Aa]15/16[Aa]15/16|[Aa]15/8z2|A15/8[Ad]z/2[Ae]15/32|[A^f]15/8[A^f]z/2a15/32|
gz/2^f15/32ez/2d15/32|e30/8z7/32|B15/8[E^c]z/2[Ed]15/32|[Ee]15/8[Ee]z/2g15/32|
^fz/2e15/32dz/2^c15/32|d30/8z7/32|[A^f]z/2[Ge]15/32[^Fd]z/2[Ge]15/32|[A^f]15/8[A^f]z/2[Aa]15/32|
[^cg]z/2[^c^f]15/32[^ce]z/2[^ce]15/32|[A^cea]62/16|[B^db]z/2[Aa]15/32[Gg]z/2[^F^f]15/32|[Ee]15/8A15/8|
[GB]z/2[G^c]15/32[A^f]z/2[Ge]15/32|[^F-d-]2[^Fd]7/8zz3/16|[A^fa]15/8[A^fa]z/2[A^fa]15/32|[A^fa]15/8[A^fa]15/8|
g15/64[d^f]z/4[^ce]15/32[d^f]z/2[eg]15/32|[A^fa]30/8z7/32|[Bgb]15/8[Bgb]z/2[Bgb]15/32|[Bgb]15/8[A^fa]15/8|
[Bgb]15/8[^ca^c']z/2[Bgb]15/32|[A^fa]15/16z[Aa]31/16|[dd']z/2[Aa]31/64[Bb]z/2[Bb]31/64|[Gg]z/2[Gg]31/64[Aa]z/2[Aa]31/64|
[^F^f]z/2[^F^f]31/64[Gg]z/2[Gg]31/64|[Ee]31/32z[Bb]z/2[Aa]15/32|[Gg]z/2[Ee]15/32[Aa]z/2[Gg]15/32|[^F^f]z/2[Dd]15/32[Gg]z/2[^F^f]15/32|
[Ee]z/2[^C^c]15/32[^F^f]z/2[Ee]15/32|[Dd]15/8z2|[dgb]30/8z7/32|[^c^fa]z/2[dd']15/32[ee']z/2[ee']15/32|
[Aa]30/8z7/32|[^c^c']z/2[Bb]15/32[Aa]z/2[Gg]15/32|[^F^f]30/8z7/32|[Gg]z/2[^F^f]15/32[Gg]z/2[Bb]15/32|
[Aa]30/8z7/32|[^F^f]30/8z7/32|[E^ce]z/2[E^ce]15/32[E^ce]z/2[^Fd^f]15/32|[GBg]30/8z7/32|
[^Fd^f]z/2[^Fd^f]15/32[^Fd^f]z/2[Geg]15/32|[A^ca]30/8z7/32|[dd']15/8[^c^c']z/2[Bb]15/32|[Aa]15/8[Gg]z/2[^F^f]15/32|
[Ee]15/8[Aa]31/16|[Dd]31/16
L:1/8
M:2/4
K:C clef=F4
V:2
%%MIDI program 0
[A,,A,]15/16[A,,A,]15/32[A,,A,]15/32[A,,A,]15/16[A,,A,]15/16|[A,,A,]15/8z2|[D,^F,A,]15/8[A,,D,^F,A,]15/8|[D,^F,A,]15/8[A,,D,^F,A,]15/8|
[E,G,A,^C]15/8[G,A,^CE]15/8|[A,,A,]15/16[^CEA]15/32[^CEA]15/32[^CEA]15/16[^CEA]15/16|[G,B,D]15/8[E,G,A,^C]15/8|[^C,E,A,]15/8[A,,^C,E,G,]15/8|
[D,^F,A,D]15/8[A,,D,^F,A,]15/8|[D,,D,]15/16[^F,A,D]15/32[^F,A,D]15/32[^F,A,D]15/16[^F,A,D]15/16|[D,^F,A,]15/8[A,,D,^F,A,]15/8|[D,^F,A,]15/8[A,,D,^F,A,]15/8|
[E,A,^C]15/8[A,,^C,E,G,]15/8|[A,,^C,E,A,]31/32[^G,,^G,]31/32[G,,G,]31/32[^F,,^F,]31/32|[B,,^D,^F,B,]15/8[E,G,B,]15/8|[A,,^C,E,A,]15/8[A,,^C,E,A,]15/8|
[E,G,A,^C]15/8[A,,^C,E,G,]15/8|[D,-^F,-]2[D,^F,]7/8zz3/16|[D,,D,]15/16z[^F,A,D]15/16z|[D,,D,]15/16z[^F,A,D]15/16z|
[A,,,A,,]15/16z[^F,A,D]15/16z|[D,,D,]15/16[D,D]15/16[A,,A,]15/16[^F,,^F,]15/16|[G,,G,]15/16z[D,G,B,]15/16z|[D,,D,]15/16z[D,^F,A,]15/16z|
[G,,G,]15/8[E,G,A,^C]z/2[^C,E,G,A,]15/32|[D,^F,D]15/16z[A,,A,]31/16|[D,D]z/2[A,,A,]31/64[B,,B,]z/2[B,,B,]31/64|[G,,G,]z/2[G,,G,]31/64[A,,A,]z/2[A,,A,]31/64|
[^F,,^F,]z/2[^F,,^F,]31/64[G,,G,]z/2[G,,G,]31/64|[E,,E,]31/32z2z|[A,,^C,E,]15/8[^C,E,G,]15/8|[D,^F,A,D]15/8[A,,^C,E,G,]15/8|
[A,,^C,E,A,]15/8[^C,E,G,A,]15/8|[D,^F,]15/8z2|[D,^F,A,]15/8[A,,D,^F,A,]15/8|[E,A,^C]15/8[A,,^C,E,G,]15/8|
[A,,,A,,]15/8[^C,E,A,]3/4[^C,E,A,]3/4[^C,E,A,]3/4|[A,,^C,E,A,]15/8[A,,^C,E,G,]15/8|[D,,D,]15/8[^F,A,D]3/4[^F,A,D]3/4[^F,A,D]3/4|[G,,B,,D,G,]15/8[G,,B,,D,G,]15/8|
[D,,D,]15/8[D,^F,A,]3/4[D,^F,A,]3/4[D,^F,A,]3/4|[D,,D,]15/8[D,^F,A,]3/4[D,^F,A,]3/4[D,^F,A,]3/4|[A,,^C,E,]15/8[A,,^C,E,]15/8|[G,,G,]15/8[G,B,D]3/4[G,B,D]3/4[G,B,D]3/4|
[D,^F,A,D]15/8[D,^F,A,D]15/8|[A,,,A,,]15/8[^C,E,A,]3/4[^C,E,A,]3/4[^C,E,A,]3/4|[D,^F,A,]15/8[E,G,A,]15/8|[^F,A,D]15/8[G,B,D]15/8|
[G,A,^C]15/8[A,,^C,E,G,]31/16|[D,^F,]31/16


